flaticon/gastronomy/mustard-1.svg

<svg xmlns="http://www.w3.org/2000/svg" width="32" height="32" viewBox="0 0 24 24">
    <path d="M 16.550781 4.398438 L 14.664062 4.398438 L 12.820312 0 L 11.179688 0 L 9.335938 4.398438 L 7.449219 4.398438 C 6.871094 4.398438 6.398438 4.871094 6.398438 5.449219 L 6.398438 22.746094 C 6.398438 23.4375 6.960938 24 7.652344 24 L 16.347656 24 C 17.039062 24 17.601562 23.4375 17.601562 22.746094 L 17.601562 5.449219 C 17.601562 4.871094 17.128906 4.398438 16.550781 4.398438 Z M 16.800781 5.449219 L 16.800781 6.800781 L 15.601562 6.800781 L 15.601562 5.199219 L 16.550781 5.199219 C 16.6875 5.199219 16.800781 5.3125 16.800781 5.449219 Z M 9.199219 5.199219 L 10.398438 5.199219 L 10.398438 6.800781 L 9.199219 6.800781 Z M 11.199219 5.199219 L 12.398438 5.199219 L 12.398438 6.800781 L 11.199219 6.800781 Z M 13.199219 5.199219 L 14.800781 5.199219 L 14.800781 6.800781 L 13.199219 6.800781 Z M 11.710938 0.800781 L 12.289062 0.800781 L 13.796875 4.398438 L 10.203125 4.398438 Z M 7.449219 5.199219 L 8.398438 5.199219 L 8.398438 6.800781 L 7.199219 6.800781 L 7.199219 5.449219 C 7.199219 5.3125 7.3125 5.199219 7.449219 5.199219 Z M 16.347656 23.199219 L 7.652344 23.199219 C 7.402344 23.199219 7.199219 22.996094 7.199219 22.746094 L 7.199219 7.601562 L 16.800781 7.601562 L 16.800781 22.746094 C 16.800781 22.996094 16.597656 23.199219 16.347656 23.199219 Z M 16.347656 23.199219"/>
    <path d="M 7.433594 15.199219 L 12 19.765625 L 16.566406 15.199219 L 12 10.632812 Z M 12 18.632812 L 8.566406 15.199219 L 12 11.765625 L 15.433594 15.199219 Z M 12 18.632812"/>
</svg>

<svg xmlns="http://www.w3.org/2000/svg" width="32" height="32" viewBox="0 0 24 24">
    <path d="M16.55 4.398h-1.886L12.82 0h-1.64L9.336 4.398H7.449c-.578 0-1.05.473-1.05 1.051v17.297c0 .692.562 1.254 1.253 1.254h8.696c.691 0 1.254-.563 1.254-1.254V5.45c0-.578-.473-1.05-1.051-1.05zm.25 1.051v1.352h-1.198V5.199h.949c.137 0 .25.114.25.25zM9.2 5.2h1.198v1.602H9.2zm2 0h1.198v1.602H11.2zm2 0h1.6v1.602h-1.6zM11.71.801h.58l1.507 3.597h-3.594zM7.45 5.199h.948v1.602H7.2V5.449c0-.136.114-.25.25-.25zm8.898 18H7.652a.453.453 0 0 1-.453-.453V7.602h9.602v15.144c0 .25-.203.453-.453.453zm0 0"/>
    <path d="M7.434 15.2L12 19.765l4.566-4.567L12 10.633zM12 18.632l-3.434-3.434L12 11.766l3.434 3.433zm0 0"/>
</svg>
